svg/instagram.svg

<svg width="30" height="30" viewBox="0 0 30 30" fill="none" xmlns="http://www.w3.org/2000/svg">
<g clip-path="url(#clip0)">
<path d="M29.9707 8.82008C29.9004 7.22607 29.6426 6.1302 29.2734 5.18061C28.8924 4.17264 28.3064 3.27022 27.5386 2.52002C26.7884 1.75816 25.88 1.16615 24.8837 0.79117C23.9286 0.421912 22.8385 0.16414 21.2445 0.0938599C19.6385 0.0176273 19.1287 0 15.0557 0C10.9826 0 10.4728 0.0176273 8.87281 0.0879078C7.2788 0.158188 6.18293 0.416188 5.23357 0.785218C4.22538 1.16615 3.32295 1.7522 2.57276 2.52002C1.81089 3.27022 1.21911 4.1786 0.843904 5.17488C0.474646 6.1302 0.216875 7.22011 0.146594 8.81413C0.0703617 10.42 0.0527344 10.9299 0.0527344 15.0029C0.0527344 19.076 0.0703617 19.5858 0.140642 21.1858C0.210923 22.7798 0.468923 23.8757 0.838181 24.8253C1.21911 25.8332 1.81089 26.7356 2.57276 27.4858C3.32295 28.2477 4.23133 28.8397 5.22762 29.2147C6.18293 29.584 7.27285 29.8417 8.86709 29.912C10.4668 29.9825 10.9769 29.9999 15.0499 29.9999C19.123 29.9999 19.6328 29.9825 21.2328 29.912C22.8268 29.8417 23.9227 29.584 24.872 29.2147C26.8882 28.4352 28.4822 26.8412 29.2617 24.8253C29.6307 23.8699 29.8887 22.7798 29.959 21.1858C30.0293 19.5858 30.0469 19.076 30.0469 15.0029C30.0469 10.9299 30.041 10.42 29.9707 8.82008ZM27.2691 21.0686C27.2046 22.5337 26.9585 23.3249 26.7533 23.8523C26.2493 25.1593 25.212 26.1965 23.905 26.7006C23.3776 26.9057 22.5807 27.1518 21.1213 27.2162C19.539 27.2867 19.0644 27.3041 15.0616 27.3041C11.0588 27.3041 10.5783 27.2867 9.0017 27.2162C7.53657 27.1518 6.7454 26.9057 6.21795 26.7006C5.56757 26.4602 4.97557 26.0793 4.49505 25.5812C3.99691 25.0947 3.61598 24.5086 3.3756 23.8583C3.17048 23.3308 2.92439 22.5337 2.86006 21.0745C2.78955 19.4922 2.77215 19.0174 2.77215 15.0146C2.77215 11.0118 2.78955 10.5313 2.86006 8.95492C2.92439 7.48979 3.17048 6.69862 3.3756 6.17117C3.61598 5.52056 3.99691 4.92879 4.501 4.44804C4.98724 3.9499 5.5733 3.56896 6.22391 3.32882C6.75135 3.1237 7.54847 2.87761 9.00765 2.81305C10.59 2.74277 11.0648 2.72514 15.0673 2.72514C19.0761 2.72514 19.5506 2.74277 21.1272 2.81305C22.5924 2.87761 23.3835 3.1237 23.911 3.32882C24.5614 3.56896 25.1534 3.9499 25.6339 4.44804C26.132 4.93451 26.513 5.52056 26.7533 6.17117C26.9585 6.69862 27.2046 7.49551 27.2691 8.95492C27.3394 10.5373 27.357 11.0118 27.357 15.0146C27.357 19.0174 27.3394 19.4862 27.2691 21.0686Z" fill="white"/>
<path d="M15.0556 7.29639C10.801 7.29639 7.349 10.7481 7.349 15.003C7.349 19.2578 10.801 22.7096 15.0556 22.7096C19.3104 22.7096 22.7622 19.2578 22.7622 15.003C22.7622 10.7481 19.3104 7.29639 15.0556 7.29639ZM15.0556 20.002C12.2954 20.002 10.0565 17.7634 10.0565 15.003C10.0565 12.2426 12.2954 10.0039 15.0556 10.0039C17.816 10.0039 20.0546 12.2426 20.0546 15.003C20.0546 17.7634 17.816 20.002 15.0556 20.002Z" fill="white"/>
<path d="M24.8662 6.99201C24.8662 7.98555 24.0606 8.79114 23.0668 8.79114C22.0733 8.79114 21.2677 7.98555 21.2677 6.99201C21.2677 5.99823 22.0733 5.19287 23.0668 5.19287C24.0606 5.19287 24.8662 5.99823 24.8662 6.99201Z" fill="white"/>
</g>
<defs>
<clipPath id="clip0">
<rect width="30" height="30" fill="white"/>
</clipPath>
</defs>
</svg>

<svg width="30" height="30" viewBox="0 0 30 30" fill="none" xmlns="http://www.w3.org/2000/svg"><g clip-path="url(#a)" fill="#fff"><path d="M29.97 8.82c-.07-1.594-.327-2.69-.697-3.64a7.322 7.322 0 0 0-1.734-2.66A7.383 7.383 0 0 0 24.884.791c-.955-.37-2.046-.627-3.64-.697C19.64.018 19.13 0 15.056 0c-4.073 0-4.583.018-6.183.088-1.594.07-2.69.328-3.64.697a7.32 7.32 0 0 0-2.66 1.735 7.386 7.386 0 0 0-1.73 2.655C.476 6.13.218 7.22.148 8.815.07 10.42.053 10.93.053 15.002c0 4.073.017 4.583.088 6.183.07 1.594.328 2.69.697 3.64a7.398 7.398 0 0 0 1.735 2.66 7.383 7.383 0 0 0 2.655 1.729c.955.369 2.045.627 3.64.697 1.599.07 2.109.088 6.182.088s4.583-.017 6.183-.088c1.594-.07 2.69-.328 3.639-.697a7.673 7.673 0 0 0 4.39-4.39c.369-.955.627-2.045.697-3.64.07-1.6.088-2.109.088-6.182s-.006-4.583-.076-6.183zm-2.7 12.249c-.065 1.465-.311 2.256-.517 2.783a4.976 4.976 0 0 1-2.848 2.849c-.527.205-1.324.45-2.784.515-1.582.07-2.057.088-6.06.088-4.002 0-4.483-.017-6.06-.088-1.464-.064-2.256-.31-2.783-.515a4.617 4.617 0 0 1-1.723-1.12 4.665 4.665 0 0 1-1.12-1.723c-.205-.527-.45-1.324-.515-2.784-.07-1.582-.088-2.057-.088-6.06 0-4.002.018-4.483.088-6.06.064-1.464.31-2.255.516-2.783A4.56 4.56 0 0 1 4.5 4.448a4.657 4.657 0 0 1 1.723-1.12c.527-.204 1.324-.45 2.784-.515 1.582-.07 2.057-.088 6.06-.088 4.008 0 4.483.018 6.06.088 1.464.065 2.256.31 2.783.516.65.24 1.242.62 1.723 1.119a4.683 4.683 0 0 1 1.12 1.723c.204.528.45 1.325.515 2.784.07 1.582.088 2.057.088 6.06 0 4.002-.018 4.471-.088 6.054z"/><path d="M15.056 7.296a7.709 7.709 0 0 0-7.707 7.707 7.709 7.709 0 0 0 7.707 7.707 7.708 7.708 0 0 0 7.706-7.707 7.708 7.708 0 0 0-7.706-7.707zm0 12.706a5 5 0 1 1 .001-10 5 5 0 0 1-.001 10zm9.81-13.01a1.8 1.8 0 1 1-3.598 0 1.8 1.8 0 0 1 3.598 0z"/></g><defs><clipPath id="a"><path fill="#fff" d="M0 0h30v30H0z"/></clipPath></defs></svg>
